X:7
T:No.69 Con Cassidy's Jig
C:jig
M:6/8
L:1/8
K:G
cBA BAG|EAA A2B|cBc Adc|
BGF G2g|gfg age|dcB g2f|
edc Bcd|[1ecA A2B:|[2ecA A2a||
ae^c aec|A^GB A2g|gdB g2G|
GFA G2B|c3 dcd|ede a2g|
edc Bcd|[1ecA A2a:|[2e^cA fed||
